desafios/travelgram/assets/Logo.svg

<svg fill="none" height="32" viewBox="0 0 162 32" width="162" xmlns="http://www.w3.org/2000/svg"><g fill="#ef5f4c"><path d="m26.6363 21.56c-.9696 1.8546-2.4073 3.4234-4.1705 4.5507s-3.7905 1.7739-5.8808 1.8756l.3963-2.055c.0294-.1543.0222-.3133-.0213-.4643-.0434-.1509-.1218-.2895-.2287-.4045l-2.4675-2.5412c-.133-.1436-.221-.3231-.253-.5162-.032-.193-.0066-.3913.073-.5701l1.7125-3.8425c.088-.1974.2377-.3611.4265-.4663.1889-.1052.4067-.1464.621-.1174l2.8525.385c.1381.0189.2709.0661.39.1387zm-12.0475-9.685 1.5362-.845c.0678-.0367.1308-.0816.1875-.1337l3.3638-3.04129c.1674-.15227.2782-.35684.3143-.58026s-.0046-.45248-.1156-.64974l-1.3125-2.35125c-.8419-.18238-1.701-.27415-2.5625-.27375-2.7391-.00417-5.3966.93268-7.52749 2.65375l-1.4725 3.48124c-.09946.2357-.10482.5005-.01499.74l1.43749 3.8338c.05907.1566.15651.2959.2834.4051s.27916.1848.44286.2199l.33624.0725 1.66499-2.9063c.0879-.1522.2144-.2786.3667-.3664s.325-.1338.5008-.1336h2.0888c.1688.0003.335-.0427.4825-.125z" opacity=".2"/><path d="m16 3c-2.5712 0-5.0846.76244-7.22241 2.1909-2.13784 1.42845-3.80408 3.45878-4.78802 5.8342-.98394 2.3755-1.24138 4.9893-.73977 7.5111.50161 2.5217 1.73973 4.8381 3.55782 6.6562 1.81808 1.8181 4.13448 3.0562 6.65618 3.5578 2.5218.5016 5.1357.2442 7.5111-.7398 2.3754-.9839 4.4058-2.6501 5.8342-4.788 1.4285-2.1378 2.1909-4.6512 2.1909-7.2224-.0036-3.4467-1.3744-6.75118-3.8116-9.18837-2.4372-2.43718-5.7417-3.80799-9.1884-3.81163zm11 13c.0011 1.4112-.2705 2.8094-.8 4.1175l-5.5875-3.4363c-.2376-.1465-.5033-.2415-.78-.2787l-2.8525-.385c-.3931-.0513-.7925.0146-1.1483.1894-.3557.1748-.652.4507-.8517.7931h-1.09l-.475-.9825c-.1313-.2736-.3235-.5135-.5618-.7013-.2384-.1879-.5165-.3187-.8132-.3824l-1-.2163.9775-1.7175h2.0888c.3379-.0007.6703-.0867.9662-.25l1.5313-.845c.1345-.075.2603-.1647.375-.2675l3.3637-3.0425c.3373-.30223.5614-.7104.6355-1.15716s-.0063-.90543-.228-1.30034l-.045-.08125c1.8823.8925 3.4728 2.30049 4.587 4.06055 1.1143 1.7601 1.7065 3.8001 1.708 5.8832zm-9.0862-10.8325 1.0862 1.945-3.3637 3.0425-1.53.845h-2.0888c-.3516-.0005-.6971.0916-1.0017.2672s-.5575.4283-.7333.7328l-1.09124 1.9038-1.26875-3.38 1.3675-3.2338c1.21039-.93526 2.60289-1.60738 4.08809-1.97331s3.0305-.41759 4.5369-.15169zm-12.91379 10.8325c-.00167-1.635.3631-3.2495 1.0675-4.725l1.4175 3.7838c.11812.3132.31301.5918.56679.8102s.55832.3696.88571.4398l2.67879.5762.4762.99c.1653.3367.4214.6205.7395.8193s.6854.3047 1.0605.3057h.185l-.9037 2.0287c-.1593.3573-.2103.7533-.1467 1.1393.0635.3859.2388.7447.5042 1.032l.0175.0175 2.4512 2.525-.2425 1.25c-2.8727-.0669-5.6055-1.2538-7.61534-3.3075-2.0098-2.0537-3.13739-4.8115-3.14215-7.685zm12.82249 10.8475.1413-.7262c.058-.3086.043-.6264-.0438-.9282-.0868-.3017-.2431-.5789-.4562-.8093-.0062-.0056-.012-.0114-.0175-.0176l-2.4463-2.5237 1.7125-3.8425 2.8525.385 5.715 3.515c-.828 1.3003-1.9195 2.4125-3.204 3.2647-1.2846.8522-2.7336 1.4255-4.2535 1.6828z"/><path d="m51.34 8.96v2.74h-3.72v11.3h-3.42v-11.3h-3.72v-2.74zm5.1364 4.74c.4-.6133.9-1.0933 1.5-1.44.6-.36 1.2667-.54 2-.54v3.62h-.94c-.8533 0-1.4933.1867-1.92.56-.4267.36-.64 1-.64 1.92v5.18h-3.42v-11.16h3.42zm4.4547 3.7c0-1.1467.2133-2.1533.64-3.02.44-.8667 1.0333-1.5333 1.78-2s1.58-.7 2.5-.7c.7867 0 1.4733.16 2.06.48.6.32 1.06.74 1.38 1.26v-1.58h3.42v11.16h-3.42v-1.58c-.3333.52-.8.94-1.4 1.26-.5867.32-1.2733.48-2.06.48-.9067 0-1.7333-.2333-2.48-.7-.7467-.48-1.34-1.1533-1.78-2.02-.4267-.88-.64-1.8933-.64-3.04zm8.36.02c0-.8533-.24-1.5267-.72-2.02-.4667-.4933-1.04-.74-1.72-.74s-1.26.2467-1.74.74c-.4667.48-.7 1.1467-.7 2s.2333 1.5333.7 2.04c.48.4933 1.06.74 1.74.74s1.2533-.2467 1.72-.74c.48-.4933.72-1.1667.72-2.02zm10.9142 2.38 2.42-7.96h3.64l-3.96 11.16h-4.22l-3.96-11.16h3.66zm18.0195-2.56c0 .32-.02.6533-.06 1h-7.74c.0534.6933.2734 1.2267.66 1.6.4.36.8867.54 1.46.54.8534 0 1.4467-.36 1.78-1.08h3.64c-.1866.7333-.5266 1.3933-1.02 1.98-.48.5867-1.0866 1.0467-1.82 1.38-.7333.3333-1.5533.5-2.46.5-1.0933 0-2.0666-.2333-2.92-.7-.8533-.4667-1.52-1.1333-2-2s-.72-1.88-.72-3.04.2334-2.1733.7-3.04c.48-.8667 1.1467-1.5333 2-2 .8534-.4667 1.8334-.7 2.94-.7 1.08 0 2.04.2267 2.88.68s1.4934 1.1 1.96 1.94c.48.84.72 1.82.72 2.94zm-3.5-.9c0-.5867-.2-1.0533-.6-1.4s-.9-.52-1.5-.52c-.5733 0-1.06.1667-1.46.5-.3866.3333-.6266.8067-.72 1.42zm8.7242-8.14v14.8h-3.42v-14.8zm6.719 3.48c.786 0 1.473.16 2.06.48.6.32 1.06.74 1.38 1.26v-1.58h3.42v11.14c0 1.0267-.207 1.9533-.62 2.78-.4.84-1.02 1.5067-1.86 2-.827.4933-1.86.74-3.1.74-1.654 0-2.994-.3933-4.02-1.18-1.027-.7733-1.614-1.8267-1.76-3.16h3.38c.106.4267.36.76.76 1 .4.2533.893.38 1.48.38.706 0 1.266-.2067 1.68-.62.426-.4.64-1.0467.64-1.94v-1.58c-.334.52-.794.9467-1.38 1.28-.587.32-1.274.48-2.06.48-.92 0-1.754-.2333-2.5-.7-.747-.48-1.34-1.1533-1.78-2.02-.427-.88-.64-1.8933-.64-3.04s.213-2.1533.64-3.02c.44-.8667 1.033-1.5333 1.78-2 .746-.4667 1.58-.7 2.5-.7zm3.44 5.74c0-.8533-.24-1.5267-.72-2.02-.467-.4933-1.04-.74-1.72-.74s-1.26.2467-1.74.74c-.467.48-.7 1.1467-.7 2s.233 1.5333.7 2.04c.48.4933 1.06.74 1.74.74s1.253-.2467 1.72-.74c.48-.4933.72-1.1667.72-2.02zm9.314-3.72c.4-.6133.9-1.0933 1.5-1.44.6-.36 1.266-.54 2-.54v3.62h-.94c-.854 0-1.494.1867-1.92.56-.427.36-.64 1-.64 1.92v5.18h-3.42v-11.16h3.42zm4.454 3.7c0-1.1467.214-2.1533.64-3.02.44-.8667 1.034-1.5333 1.78-2 .747-.4667 1.58-.7 2.5-.7.787 0 1.474.16 2.06.48.6.32 1.06.74 1.38 1.26v-1.58h3.42v11.16h-3.42v-1.58c-.333.52-.8.94-1.4 1.26-.586.32-1.273.48-2.06.48-.906 0-1.733-.2333-2.48-.7-.746-.48-1.34-1.1533-1.78-2.02-.426-.88-.64-1.8933-.64-3.04zm8.36.02c0-.8533-.24-1.5267-.72-2.02-.466-.4933-1.04-.74-1.72-.74s-1.26.2467-1.74.74c-.466.48-.7 1.1467-.7 2s.234 1.5333.7 2.04c.48.4933 1.06.74 1.74.74s1.254-.2467 1.72-.74c.48-.4933.72-1.1667.72-2.02zm20.135-5.7c1.386 0 2.486.42 3.3 1.26.826.84 1.24 2.0067 1.24 3.5v6.52h-3.4v-6.06c0-.72-.194-1.2733-.58-1.66-.374-.4-.894-.6-1.56-.6-.667 0-1.194.2-1.58.6-.374.3867-.56.94-.56 1.66v6.06h-3.4v-6.06c0-.72-.194-1.2733-.58-1.66-.374-.4-.894-.6-1.56-.6-.667 0-1.194.2-1.58.6-.374.3867-.56.94-.56 1.66v6.06h-3.42v-11.16h3.42v1.4c.346-.4667.8-.8333 1.36-1.1.56-.28 1.193-.42 1.9-.42.84 0 1.586.18 2.24.54.666.36 1.186.8733 1.56 1.54.386-.6133.913-1.1133 1.58-1.5.666-.3867 1.393-.58 2.18-.58z"/></g></svg>

<svg width="162" height="32" viewBox="0 0 162 32" fill="none" xmlns="http://www.w3.org/2000/svg">
<path opacity="0.2" d="M26.6363 21.56C25.6667 23.4146 24.229 24.9834 22.4658 26.1107C20.7026 27.238 18.6753 27.8846 16.585 27.9863L16.9813 25.9313C17.0107 25.777 17.0035 25.618 16.96 25.467C16.9166 25.3161 16.8382 25.1775 16.7313 25.0625L14.2638 22.5213C14.1308 22.3777 14.0428 22.1982 14.0108 22.0051C13.9788 21.8121 14.0042 21.6138 14.0838 21.435L15.7963 17.5925C15.8843 17.3951 16.034 17.2314 16.2228 17.1262C16.4117 17.021 16.6295 16.9798 16.8438 17.0088L19.6963 17.3938C19.8344 17.4127 19.9672 17.4599 20.0863 17.5325L26.6363 21.56ZM14.5888 11.875L16.125 11.03C16.1928 10.9933 16.2558 10.9484 16.3125 10.8963L19.6763 7.85501C19.8437 7.70274 19.9545 7.49817 19.9906 7.27475C20.0267 7.05133 19.986 6.82227 19.875 6.62501L18.5625 4.27376C17.7206 4.09138 16.8615 3.99961 16 4.00001C13.2609 3.99584 10.6034 4.93269 8.47251 6.65376L7.00001 10.135C6.90055 10.3707 6.89519 10.6355 6.98502 10.875L8.42251 14.7088C8.48158 14.8654 8.57902 15.0047 8.70591 15.1139C8.8328 15.2231 8.98507 15.2987 9.14877 15.3338L9.48501 15.4063L11.15 12.5C11.2379 12.3478 11.3644 12.2214 11.5167 12.1336C11.669 12.0458 11.8417 11.9998 12.0175 12H14.1063C14.2751 12.0003 14.4413 11.9573 14.5888 11.875Z" fill="#EF5F4C"/>
<path d="M16 3C13.4288 3 10.9154 3.76244 8.77759 5.1909C6.63975 6.61935 4.97351 8.64968 3.98957 11.0251C3.00563 13.4006 2.74819 16.0144 3.2498 18.5362C3.75141 21.0579 4.98953 23.3743 6.80762 25.1924C8.6257 27.0105 10.9421 28.2486 13.4638 28.7502C15.9856 29.2518 18.5995 28.9944 20.9749 28.0104C23.3503 27.0265 25.3807 25.3603 26.8091 23.2224C28.2376 21.0846 29 18.5712 29 16C28.9964 12.5533 27.6256 9.24882 25.1884 6.81163C22.7512 4.37445 19.4467 3.00364 16 3ZM27 16C27.0011 17.4112 26.7295 18.8094 26.2 20.1175L20.6125 16.6812C20.3749 16.5347 20.1092 16.4397 19.8325 16.4025L16.98 16.0175C16.5869 15.9662 16.1875 16.0321 15.8317 16.2069C15.476 16.3817 15.1797 16.6576 14.98 17H13.89L13.415 16.0175C13.2837 15.7439 13.0915 15.504 12.8532 15.3162C12.6148 15.1283 12.3367 14.9975 12.04 14.9338L11.04 14.7175L12.0175 13H14.1063C14.4442 12.9993 14.7766 12.9133 15.0725 12.75L16.6038 11.905C16.7383 11.83 16.8641 11.7403 16.9788 11.6375L20.3425 8.595C20.6798 8.29277 20.9039 7.8846 20.978 7.43784C21.0521 6.99108 20.9717 6.53241 20.75 6.1375L20.705 6.05625C22.5873 6.94875 24.1778 8.35674 25.292 10.1168C26.4063 11.8769 26.9985 13.9169 27 16ZM17.9138 5.1675L19 7.1125L15.6363 10.155L14.1063 11H12.0175C11.6659 10.9995 11.3204 11.0916 11.0158 11.2672C10.7112 11.4428 10.4583 11.6955 10.2825 12L9.19126 13.9038L7.92251 10.5238L9.29001 7.29C10.5004 6.35474 11.8929 5.68262 13.3781 5.31669C14.8633 4.95076 16.4086 4.8991 17.915 5.165L17.9138 5.1675ZM5.00001 16C4.99834 14.365 5.36311 12.7505 6.06751 11.275L7.48501 15.0588C7.60313 15.372 7.79802 15.6506 8.0518 15.869C8.30558 16.0874 8.61012 16.2386 8.93751 16.3088L11.6163 16.885L12.0925 17.875C12.2578 18.2117 12.5139 18.4955 12.832 18.6943C13.1501 18.8931 13.5174 18.999 13.8925 19H14.0775L13.1738 21.0287C13.0145 21.386 12.9635 21.782 13.0271 22.168C13.0906 22.5539 13.2659 22.9127 13.5313 23.2L13.5488 23.2175L16 25.7425L15.7575 26.9925C12.8848 26.9256 10.152 25.7387 8.14216 23.685C6.13236 21.6313 5.00477 18.8735 5.00001 16ZM17.8225 26.8475L17.9638 26.1213C18.0218 25.8127 18.0068 25.4949 17.92 25.1931C17.8332 24.8914 17.6769 24.6142 17.4638 24.3838C17.4576 24.3782 17.4518 24.3724 17.4463 24.3662L15 21.8425L16.7125 18L19.565 18.385L25.28 21.9C24.452 23.2003 23.3605 24.3125 22.076 25.1647C20.7914 26.0169 19.3424 26.5902 17.8225 26.8475Z" fill="#EF5F4C"/>
<path d="M51.34 8.96V11.7H47.62V23H44.2V11.7H40.48V8.96H51.34ZM56.4764 13.7C56.8764 13.0867 57.3764 12.6067 57.9764 12.26C58.5764 11.9 59.2431 11.72 59.9764 11.72V15.34H59.0364C58.1831 15.34 57.5431 15.5267 57.1164 15.9C56.6897 16.26 56.4764 16.9 56.4764 17.82V23H53.0564V11.84H56.4764V13.7ZM60.9311 17.4C60.9311 16.2533 61.1444 15.2467 61.5711 14.38C62.0111 13.5133 62.6044 12.8467 63.3511 12.38C64.0978 11.9133 64.9311 11.68 65.8511 11.68C66.6378 11.68 67.3244 11.84 67.9111 12.16C68.5111 12.48 68.9711 12.9 69.2911 13.42V11.84H72.7111V23H69.2911V21.42C68.9578 21.94 68.4911 22.36 67.8911 22.68C67.3044 23 66.6178 23.16 65.8311 23.16C64.9244 23.16 64.0978 22.9267 63.3511 22.46C62.6044 21.98 62.0111 21.3067 61.5711 20.44C61.1444 19.56 60.9311 18.5467 60.9311 17.4ZM69.2911 17.42C69.2911 16.5667 69.0511 15.8933 68.5711 15.4C68.1044 14.9067 67.5311 14.66 66.8511 14.66C66.1711 14.66 65.5911 14.9067 65.1111 15.4C64.6444 15.88 64.4111 16.5467 64.4111 17.4C64.4111 18.2533 64.6444 18.9333 65.1111 19.44C65.5911 19.9333 66.1711 20.18 66.8511 20.18C67.5311 20.18 68.1044 19.9333 68.5711 19.44C69.0511 18.9467 69.2911 18.2733 69.2911 17.42ZM80.2053 19.8L82.6253 11.84H86.2653L82.3053 23H78.0853L74.1253 11.84H77.7853L80.2053 19.8ZM98.2248 17.24C98.2248 17.56 98.2048 17.8933 98.1648 18.24H90.4248C90.4782 18.9333 90.6982 19.4667 91.0848 19.84C91.4848 20.2 91.9715 20.38 92.5448 20.38C93.3982 20.38 93.9915 20.02 94.3248 19.3H97.9648C97.7782 20.0333 97.4382 20.6933 96.9448 21.28C96.4648 21.8667 95.8582 22.3267 95.1248 22.66C94.3915 22.9933 93.5715 23.16 92.6648 23.16C91.5715 23.16 90.5982 22.9267 89.7448 22.46C88.8915 21.9933 88.2248 21.3267 87.7448 20.46C87.2648 19.5933 87.0248 18.58 87.0248 17.42C87.0248 16.26 87.2582 15.2467 87.7248 14.38C88.2048 13.5133 88.8715 12.8467 89.7248 12.38C90.5782 11.9133 91.5582 11.68 92.6648 11.68C93.7448 11.68 94.7048 11.9067 95.5448 12.36C96.3848 12.8133 97.0382 13.46 97.5048 14.3C97.9848 15.14 98.2248 16.12 98.2248 17.24ZM94.7248 16.34C94.7248 15.7533 94.5248 15.2867 94.1248 14.94C93.7248 14.5933 93.2248 14.42 92.6248 14.42C92.0515 14.42 91.5648 14.5867 91.1648 14.92C90.7782 15.2533 90.5382 15.7267 90.4448 16.34H94.7248ZM103.449 8.2V23H100.029V8.2H103.449ZM110.168 11.68C110.954 11.68 111.641 11.84 112.228 12.16C112.828 12.48 113.288 12.9 113.608 13.42V11.84H117.028V22.98C117.028 24.0067 116.821 24.9333 116.408 25.76C116.008 26.6 115.388 27.2667 114.548 27.76C113.721 28.2533 112.688 28.5 111.448 28.5C109.794 28.5 108.454 28.1067 107.428 27.32C106.401 26.5467 105.814 25.4933 105.668 24.16H109.048C109.154 24.5867 109.408 24.92 109.808 25.16C110.208 25.4133 110.701 25.54 111.288 25.54C111.994 25.54 112.554 25.3333 112.968 24.92C113.394 24.52 113.608 23.8733 113.608 22.98V21.4C113.274 21.92 112.814 22.3467 112.228 22.68C111.641 23 110.954 23.16 110.168 23.16C109.248 23.16 108.414 22.9267 107.668 22.46C106.921 21.98 106.328 21.3067 105.888 20.44C105.461 19.56 105.248 18.5467 105.248 17.4C105.248 16.2533 105.461 15.2467 105.888 14.38C106.328 13.5133 106.921 12.8467 107.668 12.38C108.414 11.9133 109.248 11.68 110.168 11.68ZM113.608 17.42C113.608 16.5667 113.368 15.8933 112.888 15.4C112.421 14.9067 111.848 14.66 111.168 14.66C110.488 14.66 109.908 14.9067 109.428 15.4C108.961 15.88 108.728 16.5467 108.728 17.4C108.728 18.2533 108.961 18.9333 109.428 19.44C109.908 19.9333 110.488 20.18 111.168 20.18C111.848 20.18 112.421 19.9333 112.888 19.44C113.368 18.9467 113.608 18.2733 113.608 17.42ZM122.922 13.7C123.322 13.0867 123.822 12.6067 124.422 12.26C125.022 11.9 125.688 11.72 126.422 11.72V15.34H125.482C124.628 15.34 123.988 15.5267 123.562 15.9C123.135 16.26 122.922 16.9 122.922 17.82V23H119.502V11.84H122.922V13.7ZM127.376 17.4C127.376 16.2533 127.59 15.2467 128.016 14.38C128.456 13.5133 129.05 12.8467 129.796 12.38C130.543 11.9133 131.376 11.68 132.296 11.68C133.083 11.68 133.77 11.84 134.356 12.16C134.956 12.48 135.416 12.9 135.736 13.42V11.84H139.156V23H135.736V21.42C135.403 21.94 134.936 22.36 134.336 22.68C133.75 23 133.063 23.16 132.276 23.16C131.37 23.16 130.543 22.9267 129.796 22.46C129.05 21.98 128.456 21.3067 128.016 20.44C127.59 19.56 127.376 18.5467 127.376 17.4ZM135.736 17.42C135.736 16.5667 135.496 15.8933 135.016 15.4C134.55 14.9067 133.976 14.66 133.296 14.66C132.616 14.66 132.036 14.9067 131.556 15.4C131.09 15.88 130.856 16.5467 130.856 17.4C130.856 18.2533 131.09 18.9333 131.556 19.44C132.036 19.9333 132.616 20.18 133.296 20.18C133.976 20.18 134.55 19.9333 135.016 19.44C135.496 18.9467 135.736 18.2733 135.736 17.42ZM155.871 11.72C157.257 11.72 158.357 12.14 159.171 12.98C159.997 13.82 160.411 14.9867 160.411 16.48V23H157.011V16.94C157.011 16.22 156.817 15.6667 156.431 15.28C156.057 14.88 155.537 14.68 154.871 14.68C154.204 14.68 153.677 14.88 153.291 15.28C152.917 15.6667 152.731 16.22 152.731 16.94V23H149.331V16.94C149.331 16.22 149.137 15.6667 148.751 15.28C148.377 14.88 147.857 14.68 147.191 14.68C146.524 14.68 145.997 14.88 145.611 15.28C145.237 15.6667 145.051 16.22 145.051 16.94V23H141.631V11.84H145.051V13.24C145.397 12.7733 145.851 12.4067 146.411 12.14C146.971 11.86 147.604 11.72 148.311 11.72C149.151 11.72 149.897 11.9 150.551 12.26C151.217 12.62 151.737 13.1333 152.111 13.8C152.497 13.1867 153.024 12.6867 153.691 12.3C154.357 11.9133 155.084 11.72 155.871 11.72Z" fill="#EF5F4C"/>
</svg>
